X: 1
T: Helston Furry Dance
O: Kernow
S: Racca Tunebook (1995)
M: 4/4
K: G
L: 1/8
G3 A B3 c | d2 d2 d2 ef | g2 d2 dedc | B4 G2 D2 |
G2 GA B2 Bc  | d2 d2 d2 ef | g2 d2 dedc | B2 G2 G4 ||
c2 e2 e2 dc | B2 d2 d4 | A2 c2c2 BA | BABc d4 |
c2 e2e2 dc | Bcdc B2 ef | g2 d2 dedc | B4 A2 x2|]